swiss/communes/5424.svg

<svg xmlns="http://www.w3.org/2000/svg" xmlns:xlink="http://www.w3.org/1999/xlink" height="763" width="603" version="1.0"><defs><radialGradient xlink:href="#a" id="b" gradientUnits="userSpaceOnUse" gradientTransform="matrix(1.21503 0 0 1.26667 -839.192 -490.49)" cx="858.042" cy="579.933" fx="858.042" fy="579.933" r="300"/><linearGradient id="a"><stop style="stop-color:#fff;stop-opacity:.3137255" offset="0"/><stop offset=".19" style="stop-color:#fff;stop-opacity:.25098041"/><stop style="stop-color:#6b6b6b;stop-opacity:.1254902" offset=".6"/><stop style="stop-color:#000;stop-opacity:.1254902" offset="1"/></linearGradient></defs><g style="opacity:1"><path d="M1.5 1.5v458.868c0 166.31 134.315 301.132 300 301.132s300-134.822 300-301.132V1.5H1.5z" style="fill:#e20909;fill-opacity:1"/></g><g style="opacity:1;display:inline"><path style="fill:#fff;stroke:#000;stroke-width:3;stroke-linecap:round;stroke-linejoin:round;stroke-miterlimit:20" d="M433.09 131.18c-91.367 0-119.608 83.854-128.087 126.853-.002.005-.005.008-.006.014-.341 1.7-1.897 3.52-3.497 3.52-1.6 0-3.156-1.82-3.497-3.52 0-.003-.003-.005-.003-.008-8.476-42.998-36.712-126.858-128.086-126.858-122.866 0-131.594 135.305-131.594 151.655 0 61.622 11.789 121.213 137.482 215.04 125.694 93.822 125.694 144.525 125.694 144.525s0-50.703 125.699-144.525c125.695-93.832 137.479-153.418 137.479-215.04.006-16.353-8.714-151.656-131.584-151.656z" transform="translate(0 -2)"/><path d="M212.914 457.399V414.61h-13.907v42.789c-8.253 1.303-25.001 5.493-36.019 18.7 0 0 17.537-6.971 36.019-6.971 8.027 6.814-.97 15.325 6.953 24.818-2.195-18.485 8.521-17.928 6.954-24.818 18.48 0 36.018 6.971 36.018 6.971-11.018-13.204-27.767-17.397-36.018-18.7z" style="fill:#5ab532;stroke:#000;stroke-width:3;stroke-linecap:round;stroke-linejoin:round" transform="translate(0 -2)"/><path d="M297.023 428.785c-49.403-44.18-50.97-81.151-50.97-81.151l-40.095 3.761-40.096-3.761s-1.569 36.973-50.97 81.151c0 0 28.23-.626 42.083-22.245 0 0-2.091 12.219-6.796 20.679 0 0 20.519-7.678 37.901-28.514 0 0 4.649 15.354 17.877 24.129 13.228-8.774 17.878-24.129 17.878-24.129 17.382 20.835 37.899 28.514 37.899 28.514-4.704-8.459-6.797-20.679-6.797-20.679 13.858 21.617 42.086 22.245 42.086 22.245z" style="fill:#5ab532;stroke:#000;stroke-width:3;stroke-linecap:round;stroke-linejoin:round" transform="translate(0 -2)"/><path d="m239.78 301.574-33.822-5.014-33.822 5.014s-1.83 36.661-41.561 78.017c0 0 22.217 1.255 36.595-19.424 0 0 .783 16.293 9.67 21.307 0 0 8.364-5.329 14.768-17.703 0 0 5.566 14.572 14.35 19.583 8.784-5.011 14.35-19.583 14.35-19.583 6.404 12.375 14.769 17.703 14.769 17.703 8.887-5.014 9.67-21.307 9.67-21.307 14.375 20.677 36.593 19.424 36.593 19.424-39.73-41.355-41.56-78.017-41.56-78.017z" style="fill:#5ab532;stroke:#000;stroke-width:3;stroke-linecap:round;stroke-linejoin:round" transform="translate(0 -2)"/><path d="m228.151 252.854-22.191-5.169-22.19 5.169s-.784 33.369-39.993 72.379c0 0 23.133.469 30.975-14.572 0 0 4.116 11.044 8.234 15.979 0 0 6.273-4.232 9.019-15.979 0 0 5.526 13.674 13.956 22.089 8.43-8.415 13.957-22.089 13.957-22.089 2.744 11.747 9.017 15.979 9.017 15.979 4.117-4.935 8.234-15.979 8.234-15.979 7.842 15.041 30.975 14.572 30.975 14.572-39.209-39.01-39.993-72.379-39.993-72.379z" style="fill:#5ab532;stroke:#000;stroke-width:3;stroke-linecap:round;stroke-linejoin:round" transform="translate(0 -2)"/><path d="M212.073 213.847c6.116 9.632 21.565 8.929 21.565 8.929-19.604-19.738-27.68-69.558-27.68-69.558s-8.076 49.82-27.68 69.558c0 0 15.449.704 21.564-8.929 0 0-15.291 35.25-40.777 60.159 0 0 22.899.514 34.894-14.102 0 0 3.098 8.603 11.997 19.271 8.9-10.669 11.997-19.271 11.997-19.271 11.996 14.616 34.894 14.102 34.894 14.102-25.483-24.911-40.774-60.159-40.774-60.159z" style="fill:#5ab532;stroke:#000;stroke-width:3;stroke-linecap:round;stroke-linejoin:round" transform="translate(0 -2)"/><g><path d="M354.067 476.099s17.536-6.971 36.017-6.971c-1.567 6.891 9.148 6.333 6.954 24.818 7.923-9.493-1.074-18.004 6.953-24.818 18.481 0 36.019 6.971 36.019 6.971-11.018-13.207-27.767-17.397-36.019-18.7V414.61h-13.907v42.789c-8.251 1.303-25.001 5.496-36.017 18.7z" style="fill:#5ab532;stroke:#000;stroke-width:3;stroke-linecap:round;stroke-linejoin:round" transform="translate(0 -2)"/><path d="M348.059 406.539s-2.092 12.219-6.797 20.679c0 0 20.518-7.678 37.9-28.514 0 0 4.649 15.354 17.878 24.129 13.228-8.774 17.877-24.129 17.877-24.129 17.382 20.835 37.9 28.514 37.9 28.514-4.704-8.459-6.796-20.679-6.796-20.679 13.854 21.619 42.084 22.245 42.084 22.245-49.401-44.178-50.97-81.151-50.97-81.151l-40.096 3.761-40.096-3.761s-1.566 36.972-50.97 81.151c.002.001 28.23-.627 42.086-22.245z" style="fill:#5ab532;stroke:#000;stroke-width:3;stroke-linecap:round;stroke-linejoin:round" transform="translate(0 -2)"/><path d="M321.659 379.591s22.217 1.252 36.592-19.424c0 0 .782 16.293 9.671 21.307 0 0 8.364-5.329 14.768-17.703 0 0 5.566 14.572 14.351 19.583 8.783-5.011 14.349-19.583 14.349-19.583 6.403 12.375 14.768 17.703 14.768 17.703 8.888-5.014 9.671-21.307 9.671-21.307 14.377 20.68 36.595 19.424 36.595 19.424-39.731-41.356-41.562-78.017-41.562-78.017l-33.82-5.014-33.823 5.014c-.002 0-1.831 36.662-41.56 78.017z" style="fill:#5ab532;stroke:#000;stroke-width:3;stroke-linecap:round;stroke-linejoin:round" transform="translate(0 -2)"/><path d="M334.856 325.233s23.133.469 30.975-14.572c0 0 4.117 11.044 8.234 15.979 0 0 6.272-4.232 9.017-15.979 0 0 5.527 13.674 13.957 22.089 8.43-8.415 13.956-22.089 13.956-22.089 2.745 11.747 9.02 15.979 9.02 15.979 4.117-4.935 8.233-15.979 8.233-15.979 7.841 15.041 30.973 14.572 30.973 14.572-39.206-39.011-39.991-72.379-39.991-72.379l-22.19-5.169-22.192 5.169c-.002 0-.785 33.369-39.992 72.379z" style="fill:#5ab532;stroke:#000;stroke-width:3;stroke-linecap:round;stroke-linejoin:round" transform="translate(0 -2)"/><path d="M350.15 274.005s22.898.514 34.896-14.102c0 0 3.097 8.601 11.996 19.271 8.898-10.668 11.996-19.271 11.996-19.271 11.994 14.616 34.894 14.102 34.894 14.102-25.486-24.909-40.776-60.159-40.776-60.159 6.115 9.632 21.565 8.929 21.565 8.929-19.604-19.738-27.68-69.558-27.68-69.558s-8.076 49.82-27.681 69.558c0 0 15.449.704 21.564-8.929 0 .001-15.29 35.249-40.774 60.159z" style="fill:#5ab532;stroke:#000;stroke-width:3;stroke-linecap:round;stroke-linejoin:round" transform="translate(0 -2)"/></g></g><g style="display:inline"><path style="fill:url(#b);fill-opacity:1" d="M1.5 1.5v458.868c0 166.31 134.315 301.132 300 301.132s300-134.821 300-301.132V1.5H1.5z"/></g><g style="display:inline"><path style="fill:none;fill-opacity:1;stroke:#000;stroke-width:3;stroke-miterlimit:4;stroke-dasharray:none;stroke-opacity:1" d="M1.5 1.5v458.868c0 166.31 134.315 301.132 300 301.132s300-134.821 300-301.132V1.5H1.5z"/></g></svg>

<?xml version="1.0" encoding="UTF-8" standalone="no"?>
<svg
   xmlns:dc="http://purl.org/dc/elements/1.1/"
   xmlns:cc="http://creativecommons.org/ns#"
   xmlns:rdf="http://www.w3.org/1999/02/22-rdf-syntax-ns#"
   xmlns:svg="http://www.w3.org/2000/svg"
   xmlns="http://www.w3.org/2000/svg"
   xmlns:xlink="http://www.w3.org/1999/xlink"
   xmlns:sodipodi="http://sodipodi.sourceforge.net/DTD/sodipodi-0.dtd"
   xmlns:inkscape="http://www.inkscape.org/namespaces/inkscape"
   height="763"
   width="603"
   version="1.0"
   id="svg20"
   sodipodi:version="0.32"
   inkscape:version="0.46"
   sodipodi:docname="Berolle-coat_of_arms.svg"
   sodipodi:docbase="C:\Documents and Settings\Steve\Bureau\Blason Villages Suisse pour Wikipédia (par Delta-9)"
   inkscape:output_extension="org.inkscape.output.svg.inkscape">
  <metadata
     id="metadata31">
    <rdf:RDF>
      <cc:Work
         rdf:about="">
        <dc:format>image/svg+xml</dc:format>
        <dc:type
           rdf:resource="http://purl.org/dc/dcmitype/StillImage" />
        <dc:date>07-AUG-2006</dc:date>
        <dc:creator>
          <cc:Agent>
            <dc:title>Jérôme BLUM (wagner51)</dc:title>
          </cc:Agent>
        </dc:creator>
        <cc:license
           rdf:resource="http://creativecommons.org/licenses/GPL/2.0/" />
        <dc:coverage />
        <dc:description>Gabarit pour le Projet:Blasons de WIkipédia</dc:description>
        <dc:subject>
          <rdf:Bag>
            <rdf:li>blason suisse modèle gabarit projet blasons</rdf:li>
          </rdf:Bag>
        </dc:subject>
        <dc:language>fr</dc:language>
        <dc:title>Gabrit d'un blason suisse</dc:title>
      </cc:Work>
      <cc:License
         rdf:about="http://creativecommons.org/licenses/GPL/2.0/">
        <cc:permits
           rdf:resource="http://web.resource.org/cc/Reproduction" />
        <cc:permits
           rdf:resource="http://web.resource.org/cc/Distribution" />
        <cc:requires
           rdf:resource="http://web.resource.org/cc/Notice" />
        <cc:permits
           rdf:resource="http://web.resource.org/cc/DerivativeWorks" />
        <cc:requires
           rdf:resource="http://web.resource.org/cc/ShareAlike" />
        <cc:requires
           rdf:resource="http://web.resource.org/cc/SourceCode" />
      </cc:License>
    </rdf:RDF>
  </metadata>
  <defs
     id="defs29"><inkscape:perspective
   sodipodi:type="inkscape:persp3d"
   inkscape:vp_x="0 : 381.5 : 1"
   inkscape:vp_y="0 : 1000 : 0"
   inkscape:vp_z="603 : 381.5 : 1"
   inkscape:persp3d-origin="301.5 : 254.33333 : 1"
   id="perspective28" />
<linearGradient
   id="linearGradient2893">
  <stop
     style="stop-color:#ffffff;stop-opacity:0.3137255;"
     offset="0"
     id="stop2895" />
  <stop
     id="stop2897"
     offset="0.19"
     style="stop-color:#ffffff;stop-opacity:0.25098041;" />
  <stop
     style="stop-color:#6b6b6b;stop-opacity:0.1254902;"
     offset="0.60000002"
     id="stop2901" />
  <stop
     style="stop-color:#000000;stop-opacity:0.1254902;"
     offset="1"
     id="stop2899" />
</linearGradient>
<linearGradient
   id="linearGradient2955">
  <stop
     style="stop-color:white;stop-opacity:0;"
     offset="0"
     id="stop2965" />
  <stop
     style="stop-color:black;stop-opacity:0.64583331;"
     offset="1"
     id="stop2959" />
</linearGradient>
<radialGradient
   inkscape:collect="always"
   xlink:href="#linearGradient2893"
   id="radialGradient3236"
   gradientUnits="userSpaceOnUse"
   gradientTransform="matrix(1.215027,1.531577e-24,1.464684e-23,1.266667,-839.1924,-490.4894)"
   cx="858.04236"
   cy="579.93323"
   fx="858.04236"
   fy="579.93323"
   r="300" />
<inkscape:perspective
   id="perspective2496"
   inkscape:persp3d-origin="297.63751 : 280.63 : 1"
   inkscape:vp_z="595.27502 : 420.94501 : 1"
   inkscape:vp_y="0 : 1000 : 0"
   inkscape:vp_x="0 : 420.94501 : 1"
   sodipodi:type="inkscape:persp3d" />

	
		
	

	

		
		
	
			
			
			
			
			
		
			
			
			
			
			
		</defs>
  <sodipodi:namedview
     inkscape:window-height="968"
     inkscape:window-width="1280"
     inkscape:pageshadow="2"
     inkscape:pageopacity="0.0"
     guidetolerance="10.0"
     gridtolerance="10.0"
     objecttolerance="10.0"
     borderopacity="1.0"
     bordercolor="#666666"
     pagecolor="#ffffff"
     id="base"
     inkscape:zoom="0.95380146"
     inkscape:cx="186.55155"
     inkscape:cy="379.04932"
     inkscape:window-x="1280"
     inkscape:window-y="22"
     inkscape:current-layer="layer2"
     showgrid="false"
     showguides="true"
     inkscape:guide-bbox="true">
    <sodipodi:guide
       orientation="horizontal"
       position="761.5"
       id="guide1885" />
    <sodipodi:guide
       orientation="vertical"
       position="1.5"
       id="guide1887" />
    <sodipodi:guide
       orientation="horizontal"
       position="1.5"
       id="guide1889" />
    <sodipodi:guide
       orientation="vertical"
       position="601.5"
       id="guide1891" />
    <sodipodi:guide
       orientation="vertical"
       position="301.50081"
       id="guide1893" />
  </sodipodi:namedview>
  <desc
     id="desc22">Coat of Arms of Canton of Freiburg (Fribourg)</desc>
  <g
     inkscape:groupmode="layer"
     id="layer1"
     inkscape:label="Fond écu"
     style="opacity:1"
     sodipodi:insensitive="true">
    <path
       id="path1899"
       d="M 1.5,1.49998 L 1.5,460.3679 C 1.5,626.6785 135.81456,761.5 301.49999,761.5 C 467.18543,761.5 601.5,626.6785 601.5,460.3679 L 601.5,1.49998 L 1.5,1.49998 z "
       style="fill:#e20909;fill-opacity:1" />
  </g>
  <g
     inkscape:groupmode="layer"
     id="layer2"
     inkscape:label="Meubles"
     style="opacity:1;display:inline"
     sodipodi:insensitive="true">
    <g
       id="g2589"
       transform="translate(0,-2)">
      <path
         style="fill:#ffffff;stroke:#000000;stroke-width:3;stroke-linecap:round;stroke-linejoin:round;stroke-miterlimit:20"
         stroke-miterlimit="20"
         d="M 433.09,131.18 C 341.723,131.18 313.482,215.034 305.003,258.033 C 305.001,258.038 304.998,258.041 304.997,258.047 C 304.656,259.747 303.1,261.567 301.5,261.567 C 299.9,261.567 298.344,259.747 298.003,258.047 C 298.003,258.044 298,258.042 298,258.039 C 289.524,215.041 261.288,131.181 169.914,131.181 C 47.048,131.181 38.32,266.486 38.32,282.836 C 38.32,344.458 50.109,404.049 175.802,497.876 C 301.496,591.698 301.496,642.40098 301.496,642.40098 C 301.496,642.40098 301.496,591.698 427.195,497.876 C 552.89,404.044 564.674,344.458 564.674,282.836 C 564.68,266.483 555.96,131.18 433.09,131.18 z"
         id="path2473" />
      <g
         id="g2582">
        <path
           d="M 212.914,457.399 L 212.914,414.61 L 199.007,414.61 L 199.007,457.399 C 190.754,458.702 174.006,462.892 162.988,476.099 C 162.988,476.099 180.525,469.128 199.007,469.128 C 207.034,475.942 198.037,484.453 205.96,493.946 C 203.765,475.461 214.481,476.018 212.914,469.128 C 231.394,469.128 248.932,476.099 248.932,476.099 C 237.914,462.895 221.165,458.702 212.914,457.399 z"
           id="path3870"
           style="fill:#5ab532;stroke:#000000;stroke-width:3;stroke-linecap:round;stroke-linejoin:round" />
        <path
           d="M 297.023,428.785 C 247.62,384.605 246.053,347.634 246.053,347.634 L 205.958,351.395 L 165.862,347.634 C 165.862,347.634 164.293,384.607 114.892,428.785 C 114.892,428.785 143.122,428.159 156.975,406.54 C 156.975,406.54 154.884,418.759 150.179,427.219 C 150.179,427.219 170.698,419.541 188.08,398.705 C 188.08,398.705 192.729,414.059 205.957,422.834 C 219.185,414.06 223.835,398.705 223.835,398.705 C 241.217,419.54 261.734,427.219 261.734,427.219 C 257.03,418.76 254.937,406.54 254.937,406.54 C 268.795,428.157 297.023,428.785 297.023,428.785 z"
           id="path3872"
           style="fill:#5ab532;stroke:#000000;stroke-width:3;stroke-linecap:round;stroke-linejoin:round" />
        <path
           d="M 239.78,301.574 L 205.958,296.56 L 172.136,301.574 C 172.136,301.574 170.306,338.235 130.575,379.591 C 130.575,379.591 152.792,380.846 167.17,360.167 C 167.17,360.167 167.953,376.46 176.84,381.474 C 176.84,381.474 185.204,376.145 191.608,363.771 C 191.608,363.771 197.174,378.343 205.958,383.354 C 214.742,378.343 220.308,363.771 220.308,363.771 C 226.712,376.146 235.077,381.474 235.077,381.474 C 243.964,376.46 244.747,360.167 244.747,360.167 C 259.122,380.844 281.34,379.591 281.34,379.591 C 241.61,338.236 239.78,301.574 239.78,301.574 z"
           id="path3874"
           style="fill:#5ab532;stroke:#000000;stroke-width:3;stroke-linecap:round;stroke-linejoin:round" />
        <path
           d="M 228.151,252.854 L 205.96,247.685 L 183.77,252.854 C 183.77,252.854 182.986,286.223 143.777,325.233 C 143.777,325.233 166.91,325.702 174.752,310.661 C 174.752,310.661 178.868,321.705 182.986,326.64 C 182.986,326.64 189.259,322.408 192.005,310.661 C 192.005,310.661 197.531,324.335 205.961,332.75 C 214.391,324.335 219.918,310.661 219.918,310.661 C 222.662,322.408 228.935,326.64 228.935,326.64 C 233.052,321.705 237.169,310.661 237.169,310.661 C 245.011,325.702 268.144,325.233 268.144,325.233 C 228.935,286.223 228.151,252.854 228.151,252.854 z"
           id="path3876"
           style="fill:#5ab532;stroke:#000000;stroke-width:3;stroke-linecap:round;stroke-linejoin:round" />
        <path
           d="M 212.073,213.847 C 218.189,223.479 233.638,222.776 233.638,222.776 C 214.034,203.038 205.958,153.218 205.958,153.218 C 205.958,153.218 197.882,203.038 178.278,222.776 C 178.278,222.776 193.727,223.48 199.842,213.847 C 199.842,213.847 184.551,249.097 159.065,274.006 C 159.065,274.006 181.964,274.52 193.959,259.904 C 193.959,259.904 197.057,268.507 205.956,279.175 C 214.856,268.506 217.953,259.904 217.953,259.904 C 229.949,274.52 252.847,274.006 252.847,274.006 C 227.364,249.095 212.073,213.847 212.073,213.847 z"
           id="path3878"
           style="fill:#5ab532;stroke:#000000;stroke-width:3;stroke-linecap:round;stroke-linejoin:round" />
      </g>
      <g
         id="g2575">
        <path
           d="M 354.067,476.099 C 354.067,476.099 371.603,469.128 390.084,469.128 C 388.517,476.019 399.232,475.461 397.038,493.946 C 404.961,484.453 395.964,475.942 403.991,469.128 C 422.472,469.128 440.01,476.099 440.01,476.099 C 428.992,462.892 412.243,458.702 403.991,457.399 L 403.991,414.61 L 390.084,414.61 L 390.084,457.399 C 381.833,458.702 365.083,462.895 354.067,476.099 z"
           id="path3870_1_"
           style="fill:#5ab532;stroke:#000000;stroke-width:3;stroke-linecap:round;stroke-linejoin:round" />
        <path
           d="M 348.059,406.539 C 348.059,406.539 345.967,418.758 341.262,427.218 C 341.262,427.218 361.78,419.54 379.162,398.704 C 379.162,398.704 383.811,414.058 397.04,422.833 C 410.268,414.059 414.917,398.704 414.917,398.704 C 432.299,419.539 452.817,427.218 452.817,427.218 C 448.113,418.759 446.021,406.539 446.021,406.539 C 459.875,428.158 488.105,428.784 488.105,428.784 C 438.704,384.606 437.135,347.633 437.135,347.633 L 397.039,351.394 L 356.943,347.633 C 356.943,347.633 355.377,384.605 305.973,428.784 C 305.975,428.785 334.203,428.157 348.059,406.539 z"
           id="path3872_1_"
           style="fill:#5ab532;stroke:#000000;stroke-width:3;stroke-linecap:round;stroke-linejoin:round" />
        <path
           d="M 321.659,379.591 C 321.659,379.591 343.876,380.843 358.251,360.167 C 358.251,360.167 359.033,376.46 367.922,381.474 C 367.922,381.474 376.286,376.145 382.69,363.771 C 382.69,363.771 388.256,378.343 397.041,383.354 C 405.824,378.343 411.39,363.771 411.39,363.771 C 417.793,376.146 426.158,381.474 426.158,381.474 C 435.046,376.46 435.829,360.167 435.829,360.167 C 450.206,380.847 472.424,379.591 472.424,379.591 C 432.693,338.235 430.862,301.574 430.862,301.574 L 397.042,296.56 L 363.219,301.574 C 363.217,301.574 361.388,338.236 321.659,379.591 z"
           id="path3874_1_"
           style="fill:#5ab532;stroke:#000000;stroke-width:3;stroke-linecap:round;stroke-linejoin:round" />
        <path
           d="M 334.856,325.233 C 334.856,325.233 357.989,325.702 365.831,310.661 C 365.831,310.661 369.948,321.705 374.065,326.64 C 374.065,326.64 380.337,322.408 383.082,310.661 C 383.082,310.661 388.609,324.335 397.039,332.75 C 405.469,324.335 410.995,310.661 410.995,310.661 C 413.74,322.408 420.015,326.64 420.015,326.64 C 424.132,321.705 428.248,310.661 428.248,310.661 C 436.089,325.702 459.221,325.233 459.221,325.233 C 420.015,286.222 419.23,252.854 419.23,252.854 L 397.04,247.685 L 374.848,252.854 C 374.846,252.854 374.063,286.223 334.856,325.233 z"
           id="path3876_1_"
           style="fill:#5ab532;stroke:#000000;stroke-width:3;stroke-linecap:round;stroke-linejoin:round" />
        <path
           d="M 350.15,274.005 C 350.15,274.005 373.048,274.519 385.046,259.903 C 385.046,259.903 388.143,268.504 397.042,279.174 C 405.94,268.506 409.038,259.903 409.038,259.903 C 421.032,274.519 443.932,274.005 443.932,274.005 C 418.446,249.096 403.156,213.846 403.156,213.846 C 409.271,223.478 424.721,222.775 424.721,222.775 C 405.117,203.037 397.041,153.217 397.041,153.217 C 397.041,153.217 388.965,203.037 369.36,222.775 C 369.36,222.775 384.809,223.479 390.924,213.846 C 390.924,213.847 375.634,249.095 350.15,274.005 z"
           id="path3878_1_"
           style="fill:#5ab532;stroke:#000000;stroke-width:3;stroke-linecap:round;stroke-linejoin:round" />
      </g>
    </g>
  </g>
  <g
     inkscape:groupmode="layer"
     id="layer3"
     inkscape:label="Reflet final"
     style="display:inline"
     sodipodi:insensitive="true">
    <path
       style="fill:url(#radialGradient3236);fill-opacity:1"
       d="M 1.5,1.5 L 1.5,460.3679 C 1.5,626.67854 135.81454,761.5 301.49993,761.5 C 467.1854,761.5 601.5,626.67854 601.5,460.3679 L 601.5,1.5 L 1.5,1.5 z "
       id="path2346" />
  </g>
  <g
     inkscape:groupmode="layer"
     id="layer4"
     inkscape:label="Contour final"
     style="display:inline"
     sodipodi:insensitive="true">
    <path
       style="fill:none;fill-opacity:1;stroke:#000000;stroke-width:3;stroke-miterlimit:4;stroke-dasharray:none;stroke-opacity:1"
       d="M 1.5,1.5 L 1.5,460.36794 C 1.5,626.67854 135.81454,761.5 301.49993,761.5 C 467.1854,761.5 601.5,626.67854 601.5,460.36794 L 601.5,1.5 L 1.5,1.5 z "
       id="path3239" />
  </g>
</svg>
